X: 648
T: Endamı Güzeldir
C: Medenî Aziz Efendi
O: Turkey
F: http://compmusic.upf.edu/node/140
N: kurdilihicazkar--sarki--turkaksagi--endami_guzeldir--medeni_aziz_efendi
N: makam= kurdilihicazkar
N: form= sarki
N: usul= turkaksagi = 5/8
M: 5/8
L: 1/16
K: C _B _e _A 
Q: 1/4=120
%%MIDI tuningsystem comma53
f4 g6 | =ab agg4_1/4e2  | g3f f2_1/4eg ed | \
w:   |   |   | 
=ab agg4z2  | 
w:   | 
f4 g6 | =ab agg4_1/4e2  | g3f f2_1/4ef ed | \
w:   |   |   | 
(3_1/4ede fed4z2  | 
w:   | 
c4 g4 f2 | fa gff4e2  | edef efde dc | cB Bcd2 e2f2  | 
w:   |   |   |   | 
g3f f2ef ed | d3cce dcc2  | B4 c2ed cB | \
w:   |   |   | 
BA AGG4z2  | 
w:   | 
g4 f4 _1/4ed | _1/4e2 f2g4=ab  | g3f f2e3d | \
w:   |   |   | 
df edd4c2  | g4 f4 _1/4ed | 
w:   |   | 
_1/4e2 f2g4=ab  | g3f f2e3d | df edd4z2  | \
w:   |   |   | 
c4 g4 f2 | fa gff4e2  | 
w:   |   | 
edef efde dc | cB Bcd2 e2f2  | g3f f2ef ed | 
w:   |   |   | 
d3cce dcc2  | B4 c2ed cB | BA AGG4z2  | \
w:   |   |   | 
G3g fedc cB | 
w:   | 
b3=aab aggf  | g3_1/4e gffg fe | _1/4ef edd4dg  | 
w:   |   |   | 
f3a gffe ed | dc cBgf edc2  | B2c2 d2cB2c | 
w:   |   |   | 
BA AGG4z2  | G3g fedc cB | b3=aab aggf  | 
w:   |   |   | 
g3_1/4e gffg fe | _1/4ef edd4dg  | f3a gffe ed | 
w:   |   |   | 
dc cBgf edc2  | B2c2 d2cB2c | BA AGG4z2  | 
w:   |   |   | 
c4 g4 f2 | fa gff4e2  | edef efde dc | cB Bcd2 e2f2  | 
w:   |   |   |   | 
g3f f2ef ed | d3cce dcc2  | B4 c2ed cB | \
w:   |   |   | 
BA AGG4z2  | 
w:   | 
|


